resources/icons/20px/shared-filter.svg

<svg width="20" height="20" viewBox="0 0 20 20" fill="none" xmlns="http://www.w3.org/2000/svg">
<path d="M13.917 17.2087C14.9274 17.6625 16.4601 18.1369 16.79 18.8519C17.0993 19.5738 16.9756 20 16.9756 20H6.02672C6.02672 20 5.89614 19.5738 6.2123 18.8519C6.52846 18.13 8.05429 17.6488 9.07151 17.2019C10.0887 16.755 9.98563 16.48 10.02 16.1087C10.02 16.0606 10.0269 16.0125 10.0269 15.9644C9.66946 15.655 9.37392 15.2219 9.18835 14.7269L9.18147 14.72C9.18147 14.7131 9.1746 14.7063 9.1746 14.6994C9.12649 14.5963 9.09212 14.4794 9.06463 14.3625C8.83095 14.3213 8.69348 14.0669 8.6385 13.8263C8.58352 13.73 8.47355 13.4962 8.50104 13.2281C8.5354 12.8775 8.67974 12.7194 8.83782 12.6575V12.6025C8.83782 12.1625 8.87219 11.5369 8.95466 11.1244C8.96841 11.0075 8.9959 10.8906 9.03027 10.7806C9.18147 10.2719 9.49764 9.81812 9.9169 9.50187C10.343 9.17187 10.9547 9 11.4977 9C12.0407 9 12.6524 9.17187 13.0854 9.50187C13.5115 9.81812 13.8208 10.2788 13.972 10.7806C14.0064 10.8975 14.0339 11.0075 14.0476 11.1244C14.1232 11.5369 14.1645 12.1694 14.1645 12.6025V12.6644C14.3157 12.7263 14.4531 12.8844 14.4875 13.2281C14.5081 13.4962 14.405 13.73 14.35 13.8263C14.3019 14.06 14.1645 14.3144 13.9308 14.3625C13.9033 14.4725 13.8689 14.5894 13.8277 14.6925C13.8208 14.6994 13.8139 14.7269 13.8139 14.7269C13.6284 15.215 13.3466 15.6413 12.996 15.9506C12.996 16.0056 12.996 16.0606 13.0029 16.1087C13.0373 16.4869 12.8998 16.7619 13.917 17.2087Z" fill="#10161A"/>
<path d="M14.9758 16.5699C14.7354 16.4715 14.5207 16.3836 14.3267 16.2965L14.3192 16.2932C14.2419 16.2592 14.1778 16.2287 14.125 16.2018C14.3492 15.914 14.5343 15.5934 14.6787 15.2557L14.68 15.2544L14.6934 15.2208C14.7114 15.1777 14.7288 15.1343 14.7454 15.0907L14.7562 15.0638C14.7615 15.0505 14.7668 15.0371 14.7719 15.0237C14.877 14.9324 14.9618 14.8333 15.0276 14.7397C15.1568 14.5562 15.2407 14.3592 15.2927 14.1775C15.3977 13.9508 15.5179 13.5846 15.4846 13.1514L15.4837 13.14L15.4825 13.1286C15.4495 12.7982 15.3453 12.4792 15.1565 12.2196C15.1407 11.8118 15.1012 11.3395 15.0365 10.9734C15.0123 10.7896 14.97 10.6297 14.9314 10.4985L14.9295 10.4921C14.7812 9.99995 14.5223 9.53157 14.1666 9.13926C14.437 9.04711 14.7269 9 14.9979 9C15.4915 9 16.0476 9.15625 16.4413 9.45625C16.8287 9.74375 17.1098 10.1625 17.2473 10.6188C17.2785 10.725 17.3035 10.825 17.316 10.9313C17.3848 11.3063 17.4222 11.8813 17.4222 12.275V12.3313C17.5597 12.3875 17.6847 12.5312 17.7159 12.8437C17.7347 13.0875 17.6409 13.3 17.5909 13.3875C17.5472 13.6 17.4222 13.8313 17.2098 13.875C17.1848 13.975 17.1536 14.0813 17.1161 14.175C17.1098 14.1813 17.1036 14.2063 17.1036 14.2063C16.9349 14.65 16.6787 15.0375 16.36 15.3188C16.36 15.3688 16.36 15.4187 16.3663 15.4625C16.3703 15.5064 16.3717 15.5488 16.3731 15.5902C16.3827 15.8727 16.3907 16.1082 17.1973 16.4625C17.3889 16.5485 17.6011 16.6354 17.8198 16.7249C18.6495 17.0644 19.5717 17.4418 19.8091 17.9563C20.0903 18.6125 19.9778 19 19.9778 19H17.8967C17.8525 18.8313 17.7915 18.6501 17.7092 18.458L17.7038 18.4454L17.698 18.4329C17.515 18.0364 17.207 17.7516 16.9382 17.553C16.6601 17.3475 16.3428 17.1757 16.0419 17.031C15.7378 16.8849 15.4174 16.7511 15.1256 16.6313L14.9758 16.5699Z" fill="#10161A"/>
<path d="M14 1C14.55 1 15 1.45 15 2C15 2.28 14.89 2.53 14.71 2.7L10 7.41V8.30651C9.75532 8.41132 9.52122 8.54427 9.30974 8.70728C8.72435 9.15051 8.28599 9.78003 8.07369 10.4891C8.02957 10.6314 7.99002 10.7929 7.96679 10.9656C7.89628 11.3364 7.85973 11.8018 7.84532 12.2025C7.65101 12.4614 7.54008 12.7842 7.50602 13.1285C7.4596 13.5869 7.59559 13.9692 7.70064 14.1892C7.75409 14.3673 7.83867 14.565 7.97027 14.7496C8.02639 14.8283 8.09648 14.9115 8.18147 14.9905V15.1341L8.23366 15.1863L6.71 16.71C6.53 16.89 6.28 17 6 17C5.45 17 5 16.55 5 16V7.41L0.29 2.71C0.11 2.53 0 2.28 0 2C0 1.45 0.45 1 1 1H14Z" fill="#10161A"/>
<path d="M9.05861 14.3614C8.82858 14.3169 8.69301 14.0648 8.6385 13.8263C8.58352 13.73 8.47355 13.4963 8.50104 13.2281C8.5354 12.8775 8.67974 12.7194 8.83782 12.6575V12.6025C8.83782 12.1625 8.87219 11.5369 8.95466 11.1244C8.96841 11.0075 8.9959 10.8906 9.03027 10.7806C9.18147 10.2719 9.49764 9.81812 9.9169 9.50187C9.94388 9.48098 9.9716 9.46072 10 9.4411V13C10 13.28 9.89 13.53 9.71 13.71L9.05861 14.3614Z" fill="#10161A"/>
</svg>

<svg xmlns="http://www.w3.org/2000/svg" viewBox="0 0 20 20">
  <path d="M13.917 17.209c1.01.454 2.543.928 2.873 1.643.31.722.186 1.148.186 1.148H6.026s-.13-.426.186-1.148 1.842-1.203 2.86-1.65.914-.722.948-1.093c0-.048.007-.097.007-.145a3.07 3.07 0 0 1-.839-1.237l-.007-.007c0-.007-.006-.014-.006-.02a1.8 1.8 0 0 1-.11-.337c-.234-.042-.372-.296-.426-.537a1.05 1.05 0 0 1-.138-.598c.034-.35.179-.509.337-.57v-.056c0-.44.034-1.065.117-1.478q.021-.177.075-.343c.151-.51.468-.963.887-1.28.426-.33 1.038-.501 1.58-.501.544 0 1.155.172 1.588.502a2.5 2.5 0 0 1 .963 1.622c.075.413.117 1.045.117 1.478v.062c.15.062.288.22.323.564.02.268-.083.502-.138.598-.048.234-.185.488-.42.537a3 3 0 0 1-.116.364 3.1 3.1 0 0 1-.818 1.224q-.002.084.007.158c.034.378-.103.653.914 1.1"/>
  <path d="M14.976 16.57c-.24-.099-.455-.186-.65-.273l-.007-.004a4 4 0 0 1-.194-.091c.224-.288.41-.609.554-.946l.001-.002.013-.033q.028-.065.052-.13l.011-.027.016-.04c.105-.092.19-.19.256-.284.129-.184.213-.38.265-.562.105-.227.225-.593.192-1.027l-.001-.011-.002-.011a1.85 1.85 0 0 0-.325-.91 10 10 0 0 0-.12-1.246 3 3 0 0 0-.106-.475l-.001-.006a3.54 3.54 0 0 0-.763-1.353c.27-.092.56-.139.83-.139.495 0 1.05.156 1.444.456a2.27 2.27 0 0 1 .875 1.475c.069.375.106.95.106 1.344v.056c.138.056.263.2.294.513.019.244-.075.456-.125.543-.044.213-.169.444-.381.488-.025.1-.056.206-.094.3a2.815 2.815 0 0 1-.756 1.144q-.002.076.006.144.006.065.007.127c.01.283.018.518.824.872.192.087.404.173.623.263.83.34 1.752.717 1.99 1.231.28.657.168 1.044.168 1.044h-2.081a4 4 0 0 0-.188-.542l-.005-.013-.006-.012c-.183-.397-.491-.681-.76-.88a5.6 5.6 0 0 0-.896-.522 17 17 0 0 0-.916-.4zM14 1c.55 0 1 .45 1 1 0 .28-.11.53-.29.7L10 7.41v.897a3.2 3.2 0 0 0-.69.4 3.5 3.5 0 0 0-1.343 2.259c-.07.37-.107.836-.122 1.237a1.84 1.84 0 0 0-.339.926c-.046.458.09.84.195 1.06.053.178.138.376.27.56q.083.121.21.242v.143l.053.052L6.71 16.71A1.003 1.003 0 0 1 5 16V7.41L.29 2.71A1.003 1.003 0 0 1 1 1z"/>
  <path d="M9.059 14.361c-.23-.044-.366-.296-.42-.535a1.05 1.05 0 0 1-.138-.598c.034-.35.179-.509.337-.57v-.056c0-.44.034-1.065.117-1.478q.021-.177.075-.343A2.5 2.5 0 0 1 10 9.44V13c0 .28-.11.53-.29.71z"/>
</svg>
